X:197
T:Trip to the Cottage, A
T:A Trip to the Cottage
R:jig
Z:id:hn-jig-197
M:6/8
K:G
~d3 BGB|cBc AFD|DGG FGA|BGB ABc|~d3 BGB|cBc AFD|DGG FGA|1 BGF GBc:|2 BGF GBd||
gfe d^cd|edc Bcd|ecA dBG|FAG FED|gfe d^cd|edc Bcd|efg eag|1 fd^c def:|2 fd^c dB=c||

